!!! OTL: Berkowitz449
!!! Chapter: 1
!!! Section: IV
!!! Page: 112
!!! Mode: 
!!! Encoder: DJB
**kern
*staff1
*I"Piano
=1-
*clefC3
*k[f#c#g#d#]
*c#:
*M4/4
4r
4r
4r
8e\L
8f#\J
=2
8g#\L
8f#\
8e\
8d#\J
4c#\
4e\
=3
4d#\
4B#/
4.G#/
8G#/
=4
4B#/
4d#\
4f#\
4a\
=5
2g#\
4r
8g#\L
8a\J
=6
8b\L
8a\
8g#\
8f#\J
4e\
4g#\
=7
4f#\
4e\
4.B/
8B/
=8
4B#/
4c#\
4c##\
4d#\
=9
!!linebreak:original
2f#\
4e\
8e\L
8f#\J
=10
8g#\L
8f#\
8e\
8d#\J
4c#\
8B#/L
8c#/J
=11
8d#/L
8c#/
8B#/
8A#/J
4.G#/
8G#/
=12
4F##/
4A#/
4c#\
4e\
=13
2d#\
4r
8e\L
8f#\J
=14
8g#\L
8f#\
8e\
8d#\J
4c#\
8a\L
8b\J
=15
!!linebreak:original
8cc#\L
8b\
8a\
8g#\J
4.f#\
8f##\
=16
4g#\
4a\
4g#\
4B#/
=17
2d#\
4c#\
4r
==
*-
